X: 39352
T: Tam's
R: jig
M: 6/8
K: Dmajor
|:D2D ABA|dBA dBA|D2D ABA|FED E3|
D2D ABA|dBA dBA|D2D ABA|FED D3:|
|:ded BAF|dBA FED|ded fed|BAF E3|
fdd edd|BdB AFA|D2D ABA|FED D3:|

